svgs/sharp-regular/face-grimace.svg

<svg xmlns="http://www.w3.org/2000/svg" viewBox="0 0 512 512"><!--! Font Awesome Pro 6.6.0 by @fontawesome - https://fontawesome.com License - https://fontawesome.com/license (Commercial License) Copyright 2024 Fonticons, Inc. --><path d="M256 48a208 208 0 1 0 0 416 208 208 0 1 0 0-416zM512 256A256 256 0 1 1 0 256a256 256 0 1 1 512 0zM144 320l0 48 32 0 0-48-32 0zm64 0l0 48 32 0 0-48-32 0zm96 48l0-48-32 0 0 48 32 0zm32 0l32 0 0-48-32 0 0 48zM144 288l224 0 32 0 0 32 0 48 0 32-32 0-224 0-32 0 0-32 0-48 0-32 32 0zm.4-80a32 32 0 1 1 64 0 32 32 0 1 1 -64 0zm192-32a32 32 0 1 1 0 64 32 32 0 1 1 0-64z"/></svg>

<svg xmlns="http://www.w3.org/2000/svg" viewBox="0 0 512 512"><!--! Font Awesome Pro 6.4.2 by @fontawesome - https://fontawesome.com License - https://fontawesome.com/license (Commercial License) Copyright 2023 Fonticons, Inc. --><path d="M256 48a208 208 0 1 0 0 416 208 208 0 1 0 0-416zM512 256A256 256 0 1 1 0 256a256 256 0 1 1 512 0zM144 320v48h32V320H144zm64 0v48h32V320H208zm96 48V320H272v48h32zm32 0h32V320H336v48zM144 288H368h32v32 48 32H368 144 112V368 320 288h32zm.4-80a32 32 0 1 1 64 0 32 32 0 1 1 -64 0zm192-32a32 32 0 1 1 0 64 32 32 0 1 1 0-64z"/></svg>
